usr/share/icons/biglinux-icons-material/24/actions/bboxprev.svg

<svg xmlns="http://www.w3.org/2000/svg" viewBox="0 0 24 24">
  <defs id="defs3051">
    <style type="text/css" id="current-color-scheme">
      .ColorScheme-Text {
        color:#363636;
      }
      </style>
  </defs><g transform="translate(1,1)">
  <path
     style="fill:currentColor;fill-opacity:1;stroke:none" 
     d="m 7.9999995,3 0,1 -2,0 0,14 2,0 0,1 -5,0 0,-1 2,0 0,-14 -2,0 0,-1 5,0 M 19,7 l 0,3 0,2 0,3 -1,0 0,-3 -4,0 0,2 L 9.9999995,11 14,8 l 0,2 4,0 0,-3 1,0"
     class="ColorScheme-Text" />
</g></svg>

<svg xmlns="http://www.w3.org/2000/svg" viewBox="0 0 24 24"><path d="M8 3v1H6v14h2v1H3v-1h2V4H3V3h5m11 4v8h-1v-3h-4v2l-4-3 4-3v2h4V7h1" style="fill:currentColor;fill-opacity:1;stroke:none;color:#dedede" transform="translate(1 1)"/></svg>
